themes/nodes/source/img/logo.svg

<svg width="240px" height="240px" viewBox="0 0 240 240" version="1.1" xmlns="http://www.w3.org/2000/svg" xmlns:xlink="http://www.w3.org/1999/xlink">
    <g id="Page-1" stroke="none" stroke-width="1" fill="none" fill-rule="evenodd">
        <g id="02_PNG/Nodes_Logo_RGB_240x240" fill="#FF42BA">
            <path d="M197.588261,66.3181855 C194.905065,60.1586723 189.096605,55.0421088 180.87107,53.3467699 C164.65093,50.001912 150.909447,61.3521734 147.207956,69.0084724 C143.961729,75.7069158 145.719002,80.8256611 146.488771,88.6434209 C147.170567,95.597147 145.740995,108.529288 142.694908,114.448792 C139.648821,120.368296 134.484768,126.113248 130.332412,129.986126 C128.955625,131.35418 127.596432,132.576045 126.272429,133.69318 C122.043096,128.336607 119.115773,123.35314 117.081382,118.923876 C115.478063,115.430649 114.433376,112.286526 113.764776,109.596239 C112.665106,105.158248 112.344002,102.247588 111.88214,97.7986875 C111.228936,91.5148058 111.569834,84.3799817 112.3506,77.8124525 C112.801465,74.0268502 113.443672,70.4048905 114.176053,67.2084021 C114.510353,65.7770735 115.003005,64.2802878 115.495658,62.783502 C116.230237,61.0248879 116.766877,59.126632 117.037396,57.0407323 L117.081382,56.6108974 L117.081382,54.7148233 C117.05499,54.3766283 117.004405,54.0297057 116.938425,53.6915106 C116.047692,49.0920583 112.251629,45.7602919 106.720287,45.0991751 C98.2858139,44.0933177 86.6930874,50.9772228 83.4974448,58.1207745 C80.4359621,64.9457683 81.2695124,69.2833922 80.3655832,76.1869345 C79.7541664,80.873663 76.8972224,92.2064691 67.182733,103.10944 C60.114051,111.040659 49.4714397,115.171002 44.1006489,124.30445 C40.031868,131.218902 39.0949487,145.150355 46.6980707,149.845811 C59.9930872,158.060677 77.9111186,145.420911 75.8547347,126.244162 C75.179537,119.499899 76.0042899,105.913186 82.5561269,94.9273026 C86.3587875,88.3445001 93.1349572,82.6191857 93.1349572,82.6191857 C97.5204433,88.4405039 100.861242,95.8306106 102.108269,101.728295 C103.036391,106.153196 104.294414,110.676281 104.815657,115.112091 C106.401382,128.22533 103.951316,145.79838 101.457264,156.472251 C101.228532,157.936308 99.1655503,163.493616 99.3283016,167.519228 C99.543837,176.857775 103.458664,185.135916 112.385789,190.512126 C113.909933,191.426343 115.484661,192.150735 117.081382,192.696211 C131.40789,197.598948 147.872157,188.094577 152.112486,173.892568 L152.174068,173.397276 C153.319925,169.421848 153.517865,165.092952 152.440188,160.606958 C149.079595,143.485562 149.537058,130.138859 153.871959,120.174107 C158.204661,110.207172 168.273244,100.628616 183.895164,91.4842591 C190.728516,87.5219226 198.248063,82.0169803 199.000238,74.1730377 L199.000238,71.5722089 C198.846284,69.9270537 198.39322,68.1662577 197.588261,66.3181855" id="Page-1"></path>
        </g>
    </g>
</svg>

<svg width="240" height="240" viewBox="0 0 240 240" xmlns="http://www.w3.org/2000/svg"><path d="M197.588 66.318c-2.683-6.16-8.491-11.276-16.717-12.971-16.22-3.345-29.962 8.005-33.663 15.661-3.246 6.699-1.489 11.818-.72 19.635.683 6.954-.747 19.886-3.793 25.806-3.046 5.92-8.21 11.664-12.363 15.537a67.274 67.274 0 0 1-4.06 3.707c-4.229-5.356-7.156-10.34-9.19-14.77-1.604-3.492-2.649-6.636-3.317-9.327-1.1-4.438-1.421-7.348-1.883-11.797-.653-6.284-.312-13.419.469-19.987.45-3.785 1.093-7.407 1.825-10.604.334-1.43.827-2.928 1.32-4.424a22.196 22.196 0 0 0 1.541-5.743l.044-.43v-1.896a9.084 9.084 0 0 0-.143-1.023c-.89-4.6-4.686-7.932-10.218-8.593-8.434-1.006-20.027 5.878-23.223 13.022-3.061 6.825-2.227 11.162-3.131 18.066-.612 4.687-3.469 16.02-13.183 26.922-7.069 7.932-17.712 12.062-23.082 21.195-4.07 6.915-5.006 20.846 2.597 25.542 13.295 8.215 31.213-4.425 29.157-23.602-.675-6.744.15-20.33 6.701-31.317C86.36 88.345 93.135 82.62 93.135 82.62c4.385 5.822 7.726 13.212 8.973 19.11.928 4.424 2.186 8.947 2.708 13.383 1.585 13.113-.865 30.686-3.359 41.36-.228 1.464-2.291 7.022-2.129 11.047.216 9.339 4.13 17.617 13.058 22.993a24.56 24.56 0 0 0 4.695 2.184c14.327 4.903 30.791-4.601 35.031-18.803l.062-.496c1.146-3.975 1.344-8.304.266-12.79-3.36-17.121-2.903-30.468 1.432-40.433 4.333-9.967 14.401-19.545 30.023-28.69 6.834-3.962 14.353-9.467 15.105-17.311v-2.6c-.154-1.646-.607-3.407-1.412-5.255" fill="#FF42BA" fill-rule="evenodd"/></svg>
